svgs/duotone/computer-classic.svg

<svg xmlns="http://www.w3.org/2000/svg" viewBox="0 0 448 512"><!--! Font Awesome Pro 6.6.0 by @fontawesome - https://fontawesome.com License - https://fontawesome.com/license (Commercial License) Copyright 2024 Fonticons, Inc. --><defs><style>.fa-secondary{opacity:.4}</style></defs><path class="fa-secondary" d="M0 48C0 21.5 21.5 0 48 0L400 0c26.5 0 48 21.5 48 48l0 320c0 26.5-21.5 48-48 48L48 416c-26.5 0-48-21.5-48-48L0 48zM32 448l384 0 0 32c0 17.7-14.3 32-32 32L64 512c-17.7 0-32-14.3-32-32l0-32zM56 336a24 24 0 1 0 48 0 24 24 0 1 0 -48 0zM64 96l0 128c0 17.7 14.3 32 32 32l256 0c17.7 0 32-14.3 32-32l0-128c0-17.7-14.3-32-32-32L96 64C78.3 64 64 78.3 64 96zM224 336c0 8.8 7.2 16 16 16l128 0c8.8 0 16-7.2 16-16s-7.2-16-16-16l-128 0c-8.8 0-16 7.2-16 16z"/><path class="fa-primary" d="M64 96c0-17.7 14.3-32 32-32H352c17.7 0 32 14.3 32 32V224c0 17.7-14.3 32-32 32H96c-17.7 0-32-14.3-32-32V96z"/></svg>

<svg xmlns="http://www.w3.org/2000/svg" viewBox="0 0 448 512"><!--! Font Awesome Pro 6.5.2 by @fontawesome - https://fontawesome.com License - https://fontawesome.com/license (Commercial License) Copyright 2024 Fonticons, Inc. --><defs><style>.fa-secondary{opacity:.4}</style></defs><path class="fa-secondary" d="M0 48C0 21.5 21.5 0 48 0H400c26.5 0 48 21.5 48 48V368c0 26.5-21.5 48-48 48H48c-26.5 0-48-21.5-48-48V48zM32 480V448H416v32c0 17.7-14.3 32-32 32H64c-17.7 0-32-14.3-32-32zM96 64C78.3 64 64 78.3 64 96V224c0 17.7 14.3 32 32 32H352c17.7 0 32-14.3 32-32V96c0-17.7-14.3-32-32-32H96zM80 360a24 24 0 1 0 0-48 24 24 0 1 0 0 48zm144-24c0 8.8 7.2 16 16 16H368c8.8 0 16-7.2 16-16s-7.2-16-16-16H240c-8.8 0-16 7.2-16 16z"/><path class="fa-primary" d="M64 96c0-17.7 14.3-32 32-32H352c17.7 0 32 14.3 32 32V224c0 17.7-14.3 32-32 32H96c-17.7 0-32-14.3-32-32V96z"/></svg>
